X: 41109
T: Trip To Sligo, The
R: jig
M: 6/8
K: Eminor
|:B,|E2 c BGE|D2 d AFD|E3 BAF|GFE e2 f|
gfe dcB|BAG FED|EFG ABc|BGF E2:|
|:B|eBe gbe|{d/e/}d>cd faf|eBe gbe|faf gbe|
faf gfe|{d/e/}d>cd AFD|EFG ABc|BGF E2:|

